X:20033
T:Tommy Peoples' Reel
R:Reel
C:Trad.
N:From playing of Tommy Peoples 1948-2018
O:Ireland
Z:Paul Hardy's Session Tunebook 2022 (see www.paulhardy.net). Creative Commons cc by-nc-sa licenced.
M:4/4
L:1/8
Q:1/4=160
K:G
F|"G"G2BG "C"cG "G"BG|"D"ADDE FGAF|"G"G2BG "C"cG "G"BG|"D"Addc "G"BGG:|
|:f|"G"g2dg "C"eg de|"G"g2bg "D"fgaf|"G"g2dg "Em"eg dB|"D7"cAdc "G"BGG:|

